X:207
T:Reel 207
M:4/4
K:Dmaj
L:1/8
A|d2cB AGEF|G2BE EFGE|d2dA BGAc|BGEG FDDA|d2FD AFAF|G2BG EFGE|FGAc Bcdf|gecd edd|g|fdAd fdad|edAd efge|fdAd fdad|Bgfe d2de|fdAd fdad|BdAd cdeg|faef gedB|cABG FDD|
